packages/match-logos/mono/svg/wix.svg

<svg width="119" height="30" viewBox="0 0 119 30" fill="none" xmlns="http://www.w3.org/2000/svg">
<g clip-path="url(#clip0)">
<path d="M20.925 4.64997C20.85 4.64997 20.775 4.87497 20.7 5.39997H21.15L21.375 5.32497C21.525 5.32497 21.6 5.24997 21.75 5.17497C21.975 5.09997 22.2 4.94997 22.35 4.79997L22.575 4.57497C21.825 4.72497 21.3 4.72497 20.925 4.64997ZM19.2 8.77497L19.125 8.84997C18.9 8.99997 18.675 9.07497 18.375 9.07497C18.075 9.07497 17.85 8.99997 17.625 8.84997L17.55 8.77497H17.475V8.92497L17.55 8.99997C18 9.29997 18.6 9.29997 19.125 8.99997L19.275 8.92497C19.2 8.84997 19.2 8.84997 19.2 8.77497ZM22.35 6.29997C22.275 6.14997 22.2 5.99997 22.05 5.92497C21.75 5.69997 21.3 5.69997 20.925 5.99997C20.775 6.14997 20.7 6.29997 20.625 6.44997C20.475 6.82497 20.325 7.27497 20.325 7.72497C20.325 7.94997 20.4 8.09997 20.55 8.24997C20.7 8.39997 20.925 8.54997 21.225 8.54997C21.45 8.62497 21.675 8.62497 21.975 8.54997C22.2 8.39997 22.35 8.17497 22.425 7.87497C22.5 7.49997 22.5 7.19997 22.5 6.82497C22.5 6.67497 22.425 6.44997 22.35 6.29997ZM21.45 7.64997C21.45 7.57497 21.375 7.42497 21.375 7.19997C21.375 6.97497 21.225 6.97497 20.925 6.97497C21 6.97497 21.075 6.97497 21.075 6.89997L21.225 6.82497C21.3 6.82497 21.3 6.74997 21.375 6.67497C21.45 6.52497 21.525 6.29997 21.45 6.07497L21.525 6.52497C21.525 6.67497 21.675 6.82497 21.825 6.82497H21.9C21.75 6.82497 21.675 6.89997 21.525 6.89997C21.45 7.27497 21.375 7.42497 21.45 7.64997ZM21.975 8.02497C21.9 8.09997 21.825 8.24997 21.9 8.39997C21.9 8.32497 21.9 8.24997 21.825 8.09997C21.75 7.94997 21.75 7.94997 21.525 7.94997H21.75L21.825 7.87497C21.9 7.72497 21.9 7.57497 21.9 7.42497V7.72497C21.9 7.87497 21.975 7.94997 22.125 7.94997C22.05 8.02497 22.05 8.02497 21.975 8.02497ZM14.325 4.94997C14.55 5.09997 14.775 5.17497 15 5.24997C15.075 5.32497 15.225 5.32497 15.375 5.32497L15.6 5.39997H16.05C15.975 4.87497 15.9 4.64997 15.825 4.64997H14.175C14.175 4.72497 14.25 4.87497 14.325 4.94997ZM15.75 5.92497C15.45 5.62497 15 5.62497 14.625 5.84997C14.475 5.92497 14.4 6.07497 14.325 6.22497C14.25 6.44997 14.25 6.67497 14.25 6.82497C14.25 7.19997 14.25 7.49997 14.4 7.79997C14.475 8.09997 14.625 8.32497 14.85 8.47497C15.075 8.54997 15.3 8.54997 15.6 8.47497C15.825 8.47497 16.05 8.32497 16.2 8.17497C16.35 8.02497 16.425 7.79997 16.425 7.64997C16.425 7.19997 16.35 6.74997 16.125 6.37497C15.975 6.22497 15.9 6.07497 15.75 5.92497ZM14.925 8.09997C14.925 8.24997 14.925 8.32497 14.85 8.39997C14.85 8.24997 14.85 8.17497 14.775 8.02497C14.7 8.02497 14.625 7.94997 14.55 7.94997C14.7 7.94997 14.775 7.87497 14.775 7.79997V7.49997C14.775 7.64997 14.775 7.72497 14.85 7.87497L14.925 7.94997H15.15C15 7.94997 14.925 8.02497 14.925 8.09997ZM15.375 7.19997C15.375 7.42497 15.3 7.57497 15.3 7.64997C15.375 7.42497 15.3 7.19997 15.15 7.04997C15 6.97497 14.925 6.97497 14.775 6.97497C15 7.04997 15.15 6.97497 15.225 6.74997V6.67497L15.3 6.22497C15.3 6.44997 15.3 6.59997 15.375 6.82497C15.375 6.89997 15.45 6.89997 15.525 6.97497L15.675 7.04997C15.75 7.04997 15.825 7.04997 15.825 7.12497C15.525 6.97497 15.375 7.04997 15.375 7.19997ZM36.15 0.0749688C35.925 -3.12328e-05 35.775 -3.12403e-05 35.55 -3.12403e-05H31.05C30.375 -3.12403e-05 29.7 0.224969 29.1 0.599969C28.5 0.974969 27.975 1.34997 27.525 1.79997C26.7 2.54997 25.95 3.29997 25.35 4.19997C25.05 3.59997 24.75 2.99997 24.45 2.47497C23.925 1.42497 23.025 0.674969 21.9 0.299969C21.6 0.224969 21.3 0.224969 21 0.224969H15.825C15.525 0.224969 15.225 0.224969 15 0.299969C13.875 0.599969 12.975 1.42497 12.45 2.39997C12.15 2.99997 11.85 3.52497 11.625 4.12497C10.95 3.29997 10.2 2.47497 9.45 1.72497C8.925 1.27497 8.4 0.899969 7.8 0.524969C7.2 0.224969 6.525 -3.12403e-05 5.85 -3.12403e-05H1.35C1.05 -3.12403e-05 0.75 -3.12328e-05 0.525 0.0749688C0.375 0.149969 0.225 0.224969 0.15 0.299969C0.075 0.449969 0 0.599969 0 0.749969C0 0.824969 0 0.974969 0.075 1.04997C0.075 1.19997 0.225 1.34997 0.3 1.49997C0.375 1.57497 0.525 1.64997 0.525 1.72497C0.75 1.94997 0.9 2.17497 1.05 2.39997L1.725 3.52497C2.25 4.42497 2.7 5.39997 3.225 6.29997C4.35 8.32497 5.625 10.275 7.05 12.15C8.1 13.5 9.375 14.625 10.875 15.45L7.35 21.975C6.3 23.925 5.25 25.875 4.125 27.825L3.975 28.125C3.825 28.2 3.75 28.35 3.675 28.5C3.6 28.65 3.525 28.875 3.525 29.1C3.525 29.325 3.6 29.475 3.75 29.625C3.975 29.775 4.2 29.925 4.425 29.925C4.65 29.925 4.875 30 5.1 30H10.5C11.775 29.85 12.975 29.25 13.8 28.125L13.95 27.75C14.55 26.775 16.35 23.85 17.175 22.575C17.325 22.275 17.7 21.75 18 21.225L18.375 20.625L18.75 21.225L19.575 22.575L21.525 25.725L22.425 27.225L22.725 27.75L22.875 28.05C23.625 29.1 24.825 29.775 26.175 29.925H31.575C31.875 29.925 32.175 29.925 32.475 29.85L32.925 29.625C33.075 29.475 33.15 29.325 33.15 29.1C33.15 28.95 33.075 28.725 33.075 28.575C33 28.425 32.925 28.275 32.85 28.05L32.775 27.75C31.65 25.875 30.6 23.925 29.625 21.975L26.1 15.375C27.6 14.625 28.95 13.5 29.925 12.075C31.35 10.275 32.625 8.32497 33.75 6.22497C34.275 5.32497 34.725 4.34997 35.25 3.44997L35.925 2.32497L36.375 1.64997C36.45 1.57497 36.525 1.49997 36.6 1.34997C36.675 1.19997 36.75 1.12497 36.825 0.974969C36.9 0.899969 36.9 0.749969 36.9 0.674969C36.9 0.524969 36.825 0.374969 36.75 0.224969C36.525 0.149969 36.375 0.0749688 36.15 0.0749688ZM36.375 0.974969C36.3 1.04997 36.3 1.12497 36.225 1.19997C36.15 1.27497 36 1.34997 35.925 1.49997C35.775 1.72497 35.625 1.94997 35.4 2.17497L34.725 3.29997C34.5 3.67497 34.275 4.12497 34.05 4.57497C33.3 5.62497 32.325 6.59997 31.35 7.34997C29.55 8.77497 26.55 10.2 22.275 11.625C18.15 12.975 15.15 14.55 13.275 16.275C12.375 17.1 11.7 17.7 11.325 18C11.25 18.075 10.8 18.525 10.125 19.275C9.15 20.4 8.25 21.525 7.35 22.725L6.9 23.4L7.575 22.125L11.175 15.375C11.25 15.3 11.175 15.15 11.1 15.075C9.525 14.325 8.25 13.2 7.2 11.85C5.775 10.05 4.5 8.09997 3.45 6.07497C3 5.17497 2.55 4.19997 2.1 3.29997L1.425 2.17497C1.275 1.94997 1.05 1.72497 0.9 1.49997C0.825 1.34997 0.75 1.27497 0.6 1.19997C0.525 1.12497 0.525 1.04997 0.45 0.899969V0.749969C0.45 0.674969 0.45 0.674969 0.525 0.599969C0.525 0.524969 0.675 0.524969 0.75 0.449969C0.9 0.449969 1.125 0.374969 1.275 0.374969H5.775C6.375 0.374969 6.975 0.599969 7.5 0.899969C8.025 1.27497 8.55 1.64997 9 2.09997C9.9 2.92497 10.65 3.74997 11.4 4.72497C11.475 4.79997 11.625 4.79997 11.7 4.72497L11.775 4.64997C12.075 3.97497 12.375 3.22497 12.75 2.62497C13.2 1.72497 14.025 0.974969 15 0.749969C15.225 0.674969 15.525 0.674969 15.75 0.674969H21C21.225 0.674969 21.525 0.674969 21.75 0.749969C22.725 1.04997 23.55 1.72497 24 2.62497C24.375 3.29997 24.675 3.97497 24.975 4.64997C25.05 4.79997 25.125 4.79997 25.275 4.79997C25.35 4.79997 25.35 4.72497 25.35 4.72497C26.1 3.74997 26.85 2.92497 27.75 2.09997C28.2 1.64997 28.725 1.27497 29.25 0.899969C29.775 0.524969 30.375 0.374969 31.05 0.299969H35.55C35.775 0.299969 36 0.299969 36.225 0.374969C36.3 0.374969 36.375 0.449969 36.375 0.449969C36.375 0.524969 36.45 0.524969 36.45 0.599969C36.375 0.824969 36.375 0.899969 36.375 0.974969ZM84.975 0.599969C83.475 1.42497 82.875 2.77497 82.875 6.52497C83.4 5.99997 84.075 5.62497 84.825 5.32497C85.5 5.02497 86.175 4.72497 86.775 4.27497C88.05 3.29997 88.275 2.09997 88.275 0.0749688C87.15 -3.12328e-05 86.025 0.149969 84.975 0.599969ZM75.975 1.42497C75.15 2.17497 74.625 3.22497 74.325 4.27497L70.2 20.25L66.75 7.19997C66.45 5.62497 65.775 4.19997 64.875 2.92497C63.675 1.42497 61.2 1.34997 60.9 1.34997C60.6 1.34997 58.2 1.42497 57 2.92497C56.1 4.19997 55.425 5.62497 55.125 7.19997L51.675 20.25L47.55 4.27497C47.25 3.22497 46.725 2.24997 45.9 1.42497C43.875 -0.375031 40.875 -3.12403e-05 40.875 -3.12403e-05L48.75 29.925C48.75 29.925 51.375 30.075 52.65 29.475C54.375 28.575 55.2 27.9 56.25 23.85C57.15 20.25 59.775 9.59997 60 8.84997C60.15 8.47497 60.3 7.57497 60.9 7.57497C61.5 7.57497 61.725 8.47497 61.8 8.84997C62.025 9.59997 64.65 20.25 65.55 23.85C66.6 27.9 67.425 28.575 69.15 29.475C70.425 30.15 73.05 29.925 73.05 29.925L81 -3.12403e-05C81 -3.12403e-05 78 -0.375031 75.975 1.42497ZM88.275 4.94997C87.825 5.54997 87.3 5.99997 86.625 6.37497C85.875 6.74997 85.2 7.04997 84.45 7.42497C83.175 8.02497 82.875 8.69997 82.875 9.67497V30C84 30.15 85.125 30 86.175 29.625C87.825 28.8 88.275 27.975 88.275 24.225V4.94997ZM118.05 0.149969C118.05 0.149969 113.85 -0.600031 111.75 1.34997C110.7 2.39997 109.725 3.52497 108.9 4.79997L105.225 10.125C105.075 10.575 104.625 10.8 104.175 10.65C103.95 10.575 103.725 10.35 103.65 10.125L99.975 4.79997C99.15 3.59997 98.175 2.39997 97.125 1.34997C95.025 -0.600031 90.825 0.149969 90.825 0.149969L100.875 15.075L90.75 29.925C90.75 29.925 95.175 30.45 97.275 28.575C98.25 27.6 99.15 26.55 99.9 25.35L103.575 20.025C103.725 19.575 104.175 19.35 104.625 19.5C104.85 19.575 105.075 19.8 105.15 20.025L108.825 25.35C109.65 26.475 110.55 27.6 111.525 28.575C113.625 30.45 117.975 29.925 117.975 29.925L108 15.075L118.05 0.149969Z" fill="#1F304C"/>
</g>
<defs>
<clipPath id="clip0">
<rect width="118.5" height="30" fill="white"/>
</clipPath>
</defs>
</svg>

<svg fill="none" height="30" viewBox="0 0 119 30" width="119" xmlns="http://www.w3.org/2000/svg" xmlns:xlink="http://www.w3.org/1999/xlink"><clipPath id="a"><path d="m0 0h118.5v30h-118.5z"/></clipPath><g clip-path="url(#a)"><path d="m20.925 4.64997c-.075 0-.15.225-.225.75h.45l.225-.075c.15 0 .225-.075.375-.15.225-.075.45-.225.6-.375l.225-.225c-.75.15-1.275.15-1.65.075zm-1.725 4.125-.075.075c-.225.15-.45.225-.75.225s-.525-.075-.75-.225l-.075-.075h-.075v.15l.075.075c.45.3 1.05.3 1.575 0l.15-.075c-.075-.075-.075-.075-.075-.15zm3.15-2.475c-.075-.15-.15-.3-.3-.375-.3-.225-.75-.225-1.125.075-.15.15-.225.3-.3.45-.15.375-.3.825-.3 1.275 0 .225.075.375.225.525s.375.3.675.3c.225.075.45.075.75 0 .225-.15.375-.375.45-.675.075-.375.075-.675.075-1.05 0-.15-.075-.375-.15-.525zm-.9 1.35c0-.075-.075-.225-.075-.45s-.15-.225-.45-.225c.075 0 .15 0 .15-.075l.15-.075c.075 0 .075-.075.15-.15.075-.15.15-.375.075-.6l.075.45c0 .15.15.3.3.3h.075c-.15 0-.225.075-.375.075-.075.375-.15.525-.075.75zm.525.375c-.075.075-.15.225-.075.375 0-.075 0-.15-.075-.3s-.075-.15-.3-.15h.225l.075-.075c.075-.15.075-.3.075-.45v.3c0 .15.075.225.225.225-.075.075-.075.075-.15.075zm-7.65-3.075c.225.15.45.225.675.3.075.075.225.075.375.075l.225.075h.45c-.075-.525-.15-.75-.225-.75h-1.65c0 .075.075.225.15.3zm1.425.975c-.3-.3-.75-.3-1.125-.075-.15.075-.225.225-.3.375-.075.225-.075.45-.075.6 0 .375 0 .675.15.975.075.3.225.525.45.675.225.075.45.075.75 0 .225 0 .45-.15.6-.3s.225-.375.225-.525c0-.45-.075-.9-.3-1.275-.15-.15-.225-.3-.375-.45zm-.825 2.175c0 .15 0 .225-.075.3 0-.15 0-.225-.075-.375-.075 0-.15-.075-.225-.075.15 0 .225-.075.225-.15v-.3c0 .15 0 .225.075.375l.075.075h.225c-.15 0-.225.075-.225.15zm.45-.9c0 .225-.075.375-.075.45.075-.225 0-.45-.15-.6-.15-.075-.225-.075-.375-.075.225.075.375 0 .45-.225v-.075l.075-.45c0 .225 0 .375.075.6 0 .075.075.075.15.15l.15.075c.075 0 .15 0 .15.075-.3-.15-.45-.075-.45.075zm20.775-7.1250012c-.225-.07500003-.375-.07500004-.6-.07500004h-4.5c-.675 0-1.35.22500024-1.95.60000024s-1.125.750001-1.575 1.200001c-.825.75-1.575 1.5-2.175 2.4-.3-.6-.6-1.2-.9-1.725-.525-1.05-1.425-1.800001-2.55-2.175001-.3-.075-.6-.075-.9-.075h-5.175c-.3 0-.6 0-.825.075-1.125.3-2.025 1.125001-2.55 2.100001-.3.6-.6 1.125-.825 1.725-.675-.825-1.425-1.65-2.175-2.4-.525-.45-1.05-.825001-1.65-1.200001-.6-.3-1.275-.52500024-1.95-.52500024h-4.5c-.3 0-.6.00000001-.825.07500004-.15.0750002-.3.1500002-.375.2250002-.075.15-.15.3-.15.45 0 .075 0 .225.075.300001 0 .15.15.3.225.45.075.075.225.15.225.225.225.225.375.45.525.675l.675 1.125c.525.9.975 1.875 1.5 2.775 1.125 2.025 2.4 3.97503 3.825 5.85003 1.05 1.35 2.325 2.475 3.825 3.3l-3.525 6.525c-1.05 1.95-2.1 3.9-3.225 5.85l-.15.3c-.15.075-.225.225-.3.375s-.15.375-.15.6.075.375.225.525c.225.15.45.3.675.3s.45.075.675.075h5.4c1.275-.15 2.475-.75 3.3-1.875l.15-.375c.6-.975 2.4-3.9 3.225-5.175.15-.3.525-.825.825-1.35l.375-.6.375.6.825 1.35 1.95 3.15.9 1.5.3.525.15.3c.75 1.05 1.95 1.725 3.3 1.875h5.4c.3 0 .6 0 .9-.075l.45-.225c.15-.15.225-.3.225-.525 0-.15-.075-.375-.075-.525-.075-.15-.15-.3-.225-.525l-.075-.3c-1.125-1.875-2.175-3.825-3.15-5.775l-3.525-6.6c1.5-.75 2.85-1.875 3.825-3.3 1.425-1.8 2.7-3.75003 3.825-5.85003.525-.9.975-1.875 1.5-2.775l.675-1.125.45-.675c.075-.075.15-.15.225-.3s.15-.225.225-.375001c.075-.075.075-.225.075-.3 0-.15-.075-.3-.15-.45-.225-.075-.375-.1500002-.6-.1500002zm.225.9000002c-.075.075001-.075.150001-.15.225001s-.225.15-.3.3c-.15.225-.3.45-.525.675l-.675 1.125c-.225.375-.45.825-.675 1.275-.75 1.05-1.725 2.025-2.7 2.775-1.8 1.425-4.8 2.85003-9.075 4.27503-4.125 1.35-7.125 2.925-9 4.65-.9.825-1.575 1.425-1.95 1.725-.075.075-.525.525-1.2 1.275-.975 1.125-1.875 2.25-2.775 3.45l-.45.675.675-1.275 3.6-6.75c.075-.075 0-.225-.075-.3-1.575-.75-2.85-1.875-3.9-3.225-1.425-1.8-2.7-3.75003-3.75-5.77503-.45-.9-.9-1.875-1.35-2.775l-.675-1.125c-.15-.225-.375-.45-.525-.675-.075-.15-.15-.225-.3-.3-.075-.075-.075-.15-.15-.300001v-.15c0-.075 0-.075.075-.15 0-.075.15-.075.225-.15.15 0 .375-.075.525-.075h4.5c.6 0 1.2.225 1.725.525.525.375001 1.05.750001 1.5 1.200001.9.825 1.65 1.65 2.4 2.625.075.075.225.075.3 0l.075-.075c.3-.675.6-1.425.975-2.025.45-.9 1.275-1.650001 2.25-1.875001.225-.075.525-.075.75-.075h5.25c.225 0 .525 0 .75.075.975.300001 1.8.975001 2.25 1.875001.375.675.675 1.35.975 2.025.075.15.15.15.3.15.075 0 .075-.075.075-.075.75-.975 1.5-1.8 2.4-2.625.45-.45.975-.825 1.5-1.200001.525-.375 1.125-.525 1.8-.6h4.5c.225 0 .45 0 .675.075.075 0 .15.075.15.075 0 .075.075.075.075.15-.075.225-.075.3-.075.375zm48.6-.375c-1.5.825001-2.1 2.175001-2.1 5.925001.525-.525 1.2-.9 1.95-1.2.675-.3 1.35-.6 1.95-1.05 1.275-.975 1.5-2.175 1.5-4.2000012-1.125-.07500003-2.25.0750002-3.3.5250002zm-9 .825001c-.825.75-1.35 1.8-1.65 2.85l-4.125 15.97503-3.45-13.05003c-.3-1.575-.975-3-1.875-4.275-1.2-1.5-3.675-1.575-3.975-1.575s-2.7.075-3.9 1.575c-.9 1.275-1.575 2.7-1.875 4.275l-3.45 13.05003-4.125-15.97503c-.3-1.05-.825-2.025-1.65-2.85-2.025-1.800001-5.025-1.42500124-5.025-1.42500124l7.875 29.92503124s2.625.15 3.9-.45c1.725-.9 2.55-1.575 3.6-5.625.9-3.6 3.525-14.25003 3.75-15.00003.15-.375.3-1.275.9-1.275s.825.9.9 1.275c.225.75 2.85 11.40003 3.75 15.00003 1.05 4.05 1.875 4.725 3.6 5.625 1.275.675 3.9.45 3.9.45l7.95-29.92503124s-3-.37499976-5.025 1.42500124zm12.3 3.525c-.45.6-.975 1.05-1.65 1.425-.75.375-1.425.675-2.175 1.05-1.275.6-1.575 1.275-1.575 2.25v20.32503c1.125.15 2.25 0 3.3-.375 1.65-.825 2.1-1.65 2.1-5.4zm29.775-4.800001s-4.2-.75-6.3 1.200001c-1.05 1.05-2.025 2.175-2.85 3.45l-3.675 5.32503c-.15.45-.6.675-1.05.525-.225-.075-.45-.3-.525-.525l-3.675-5.32503c-.825-1.2-1.8-2.4-2.85-3.45-2.1-1.950001-6.3-1.200001-6.3-1.200001l10.05 14.925031-10.125 14.85s4.425.525 6.525-1.35c.975-.975 1.875-2.025 2.625-3.225l3.675-5.325c.15-.45.6-.675 1.05-.525.225.075.45.3.525.525l3.675 5.325c.825 1.125 1.725 2.25 2.7 3.225 2.1 1.875 6.45 1.35 6.45 1.35l-9.975-14.85z" fill="#1f304c"/></g></svg>
